X: 092
T: Honble Miss Catherine Elliot's Reel
C: by John Pringle
B: John Pringle "Collection of Reels Strathspeys & Jigs", 1801 p.9#2
Z: 2011 John Chambers <jc:trillian.mit.edu>
R: reel
M: C|
L: 1/8
K: A
V: 1
e | cABG A2EA | FAdf ecBd | cABG A2EA | dfEG A/A/A A :|
d | ceag fgaf | gabg edce | ceag fgaf | gbaf e/e/e e ||
c | dfag fedc | (dc)~BA BFFB | ceac dfbd | cABG A2A |]
V: 2 clef=bass middle=d
z | a2e2 A2c2 | d2d'2 c'2e2 | a2e2 A2c2 | d2e2 A2A :|
z | a2a2 d'3^d' | e'2e2 a2A2 | a2a2 d2d'2 | b2B2 e2e ||
z | b3g a2A2 | B3c d2D2 | A2a2 b2B2 | e2E2 A2A |]

%%sep 2 1 500

